X:1
T:Den Sodeste Vals (Harmonized)
R:Waltz
M:3/4
L:1/8
K:G
%%printtempo 0
Q:160
V:1
A2|"G"B3cB2|"D"A3BA2|"G"G3AG2|"G/B"D3E ED|"C"E4D2|c4D2|"Am"E4D2|"D"B3A GA|
V:2
D2|G3AG2|F3GF2|D4D2|B,3C CB,|C4D2|E4G2|A6|D4D2|
V:3
z2|d4d2|d4d2|B3cB2|G4G2|G6|G4G2|c6|d3c Bc|
V:1
"G"B3cB2|"D"A3BA2|"Em"G3AG2|"Bm"D3ED2|"C"E3FG2|"D"F3GA2|"G"G6- |1 G4 :|2 G4A2||
V:2
G3AG2|F3GF2|E4E2|B,4B,2|C4C2|D4D2|G,6-|1G,4:|2G,4D2||
V:3
d4d2|d4d2|B4B2|F4F2|G4c2|A4d2|B6-|1B4:|2B4d2||
V:1
|:"G"B3AB2|d4DG|"D"A3BA2|"Em"G6|"C"G2F2E2|"G"D4c2|D3Bc2|"D"AB BA GA|
V:2
|:G4G2|B4G2|F3GF2|E6|E2D2C2|[G,4D4]E2|[G,6B,6]|D4EF|
V:3
|:d4d2|g4d2|d4d2|B6|c4c2|B4c2|d4e2|d6|
V:1
"G"B3AB2|d4DG|"D"A3BA2|"Em"G6|"C"G2F2E2|"G"D4c2|"D"BcB2A2|1"G"GF GA Bc:|2"G"G6|]
V:2
G4G2|B4G2|F3GF2|E6|E2D2C2|[G,4D4]E2|D4D2|1G,6:|2G,6|]
V:3
d4d2|g4d2|d4d2|B6|c4c2|B4c2|de d2c2|1BA Bc de:|2B6|]
